X:1
T:Winter Memories
T:Winter Memories
T:Colin Hume
C:Colin Hume
L:1/8
M:4/4
K:C
V:1 treble 
V:1
 g2 e2 d2 c2 | g2 c'2 g2 f2 | g2 e2 d2 c2 | A6 B2 | c2 G2 c2 g2 | f2 e2 d2 c2 | a2 f2 g2 a2 | g8 | %8
 g2 e2 d2 c2 | g2 c'2 g2 f2 | g2 e2 d2 c2 | A6 B2 | c2 G2 c2 g2 | f2 e2 d2 c2 | F2 G2 B2 d2 | c8 | %16
 c'2 a2 b2 c'2 | b6 e2 | a2 f2 g2 a2 | g4 c2 d2 | e4 a4 | g2 e2 d2 c2 | A4 c4 | d8 | %24
 c'2 a2 b2 c'2 | b6 e2 | a2 f2 g2 a2 | g4 c2 d2 | e4 a4 | g2 e2 d2 c2 | d6 c2 | c8 || %32

